packages/core/src/svgs/sfp.svg

<svg width="24" height="24" viewBox="0 0 24 24" fill="none" xmlns="http://www.w3.org/2000/svg">
<g clip-path="url(#clip0_31_18552)">
<path d="M0 0H24V24H0V0Z" fill="#4B21EF"/>
<path d="M10.0414 5.60592C10.1875 5.45923 10.3612 5.34282 10.5524 5.2634C10.7436 5.18397 10.9486 5.14308 11.1557 5.14307H18.8571L15.5571 8.57164H9.1714C8.76855 8.57164 8.5714 8.76878 8.5714 9.17164V14.5502L5.40426 11.5116C5.32068 11.4281 5.25438 11.3288 5.20914 11.2196C5.16391 11.1104 5.14062 10.9934 5.14062 10.8752C5.14062 10.757 5.16391 10.64 5.20914 10.5308C5.25438 10.4216 5.32068 10.3224 5.40426 10.2388L10.0414 5.60592ZM14.8285 15.4288H8.44283L5.14283 18.8574H12.8443C13.2643 18.8574 13.6585 18.6902 13.9585 18.3945L18.5957 13.7616C18.6793 13.6781 18.7456 13.5788 18.7908 13.4696C18.836 13.3604 18.8593 13.2434 18.8593 13.1252C18.8593 13.007 18.836 12.89 18.7908 12.7808C18.7456 12.6716 18.6793 12.5724 18.5957 12.4888L15.4285 9.45021V14.8288C15.4285 15.2316 15.2314 15.4288 14.8285 15.4288Z" fill="#F7F6FF"/>
</g>
<defs>
<clipPath id="clip0_31_18552">
<rect width="24" height="24" fill="white"/>
</clipPath>
</defs>
</svg>

<svg xmlns="http://www.w3.org/2000/svg" width="24" height="24" fill="none" viewBox="0 0 24 24"><g clip-path="url(#a)"><path fill="#4B21EF" d="M0 0h24v24H0z"/><path fill="#F7F6FF" d="M10.041 5.606a1.57 1.57 0 0 1 1.115-.463h7.701l-3.3 3.429H9.171c-.402 0-.6.197-.6.6v5.378l-3.167-3.038a.9.9 0 0 1 0-1.273zm4.788 9.823H8.442l-3.3 3.428h7.701c.42 0 .815-.167 1.115-.462l4.637-4.633a.9.9 0 0 0 0-1.273L15.428 9.45v5.379c0 .403-.197.6-.6.6"/></g><defs><clipPath id="a"><path fill="#fff" d="M0 0h24v24H0z"/></clipPath></defs></svg>
